img/service-3-2.svg

<svg fill="none" height="240" viewBox="0 0 240 240" width="240" xmlns="http://www.w3.org/2000/svg" xmlns:xlink="http://www.w3.org/1999/xlink"><clipPath id="a"><path d="m0 0h240v240h-240z"/></clipPath><g clip-path="url(#a)"><path d="m93.5389 63.6898.3879 61.4192c.0266 4.2-3.3571 7.627-7.5577 7.654-4.5133.028-8.0584-3.857-7.6176-8.349l5.9992-61.1266c.2203-2.2446 2.1005-3.9602 4.3558-3.9744 2.4326-.0154 4.4171 1.9442 4.4324 4.3768z" fill="#0d06c1"/><path d="m88.4881 82.759 5.0549 27.135c.8695 4.667-2.0673 9.198-6.6827 10.31-5.5876 1.346-10.9723-2.863-11.0146-8.61l-.1792-24.3643c-.0065-.8812-.1148-1.7586-.3229-2.6149l-7.1167-29.283c-.6983-2.8733 1.0683-5.7678 3.943-6.4605 2.707-.6523 5.4614.8822 6.3315 3.5272z" fill="#241ed3"/><path d="m81.5942 80.3315 11.0316 25.0865c1.9194 4.364.1686 9.471-4.0249 11.741-5.1127 2.766-11.4759.131-13.1352-5.441l-7.1743-24.0887c-.2516-.8447-.6-1.6574-1.0383-2.422l-18.6562-32.5422c-1.5108-2.6354-.5544-5.9979 2.1173-7.4436 2.3876-1.292 5.363-.6129 6.9538 1.5869l22.7254 31.4268c.4732.6543.8758 1.357 1.2008 2.0963z" fill="#403add"/><path d="m68.4904 83.7327 19.579 17.1723c3.5305 3.097 5.6361 7.506 5.8251 12.198l.9404 23.35c.2441 6.061 2.9426 11.762 7.4751 15.793l4.472 3.978c7.033 6.254 8.856 16.517 4.408 24.812-6.207 11.573-21.5919 14.318-31.4187 5.606l-18.6445-16.531-32.7348-29.205c-2.7884-2.488-4.1845-6.181-3.7386-9.892l1.9561-16.275c.3004-2.498 2.4795-4.341 4.9935-4.222 2.2604.106 4.1393 1.777 4.5097 4.009l1.1871 7.153c.5452 3.286 2.4963 6.17 5.3429 7.898l5.8016 3.523c3.8375 2.33 8.6925 2.157 12.3547-.44 6.6353-4.705 8.9733-13.472 5.5623-20.856l-3.762-8.145c-1.8436-3.9907-6.731-5.5165-10.5178-3.283l-15.781 9.308c-2.0185 1.191-4.6126.636-5.9681-1.275-1.3607-1.919-1.0173-4.562.7887-6.069l22.5101-18.7892c4.3218-3.6073 10.627-3.5302 14.8592.1819z" fill="#5b57ca"/><path clip-rule="evenodd" d="m159.305 135.486h-55.265c-.316 0-.572-.256-.572-.571v-55.2656s0 0 0-.0001c0-30.8379 24.999-55.8369 55.837-55.8369s55.837 24.999 55.837 55.8369c0 30.8377-24.999 55.8367-55.837 55.8367z" fill="#f55c5c" fill-rule="evenodd"/><path clip-rule="evenodd" d="m194.389 96.9615c.338-1.2737-.828-2.4365-2.101-2.0955l-8.066 2.1612c-.567.1519-1.183.0124-1.562-.4362-1.423-1.6873-2.023-3.9252-1.634-6.0979.104-.5778.568-1.007 1.135-1.1589l7.972-2.136c1.272-.341 1.7-1.9309.771-2.865l-3.033-3.0484c-.433-.4352-1.066-.6055-1.659-.4466l-10.532 2.8219c-.593.1589-1.056.6228-1.213 1.2163l-.782 2.9463c-.525 1.9781-2.067 3.5245-4.044 4.0542l-47.809 12.8101c-2.587.693-4.123 3.353-3.429 5.941.693 2.587 3.353 4.123 5.94 3.429l47.807-12.809c1.977-.53 4.086.038 5.53 1.488l2.152 2.163c.433.435 1.066.606 1.659.447l10.531-2.822c.593-.159 1.056-.623 1.214-1.217z" fill="#fff500" fill-rule="evenodd"/><rect fill="#f3e900" height="55.1563" rx="2.77167" transform="matrix(-.258819 -.965926 -.965926 .258819 174.359 98.3613)" width="5.54335"/><path d="m193.143 215.241v.286h.286v-.286zm-68.286-34.286c0-18.777 15.222-34 34-34v-.571c-19.093 0-34.571 15.478-34.571 34.571zm34 34c-18.778 0-34-15.222-34-34h-.571c0 19.094 15.478 34.572 34.571 34.572zm34.286 0h-34.286v.572h34.286zm-.286-34v34.286h.572v-34.286zm-34-34c18.778 0 34 15.223 34 34h.572c0-19.093-15.479-34.571-34.572-34.571z" fill="#fdbbab"/><path d="m200.414 64.1098c0-3.829-3.104-6.933-6.933-6.933h-32.086v13.866h32.086c3.829 0 6.933-3.104 6.933-6.933z" fill="#fff500"/><rect fill="#f3ea00" height="30.3118" rx=".806165" transform="matrix(-.00000004 1 1 .00000004 164.297 60.0781)" width="1.61233"/><rect fill="#f3ea00" height="30.3118" rx=".806165" transform="matrix(-.00000004 1 1 .00000004 164.297 66.5283)" width="1.61233"/><rect fill="#f3ea00" height="30.3118" rx=".806165" transform="matrix(-.00000004 1 1 .00000004 164.297 63.3027)" width="1.61233"/><path d="m123.361 61.474c-.347-.0555-.662.2127-.662.5643v4.4641c0 .3516.315.6198.662.5643l7.355-1.1768c.03-.0048.06-.0072.091-.0072h28.654c.89 0 1.612-.7219 1.612-1.6123 0-.8905-.722-1.6124-1.612-1.6124h-28.654c-.031 0-.061-.0024-.091-.0071z" fill="#e6e6e6"/><path d="m123.361 61.474c-.347-.0555-.662.2127-.662.5643v4.4641c0 .3516.315.6198.662.5643l6.919-1.107c.277-.0444.481-.2835.481-.5643v-2.2501c0-.2807-.204-.5199-.481-.5643z" fill="#fff"/><rect fill="#f3ea00" height="2.90219" rx="1.4511" transform="matrix(-.00000004 1 1 .00000004 159.461 55.2412)" width="17.7356"/><g fill="#f55c5c"><path clip-rule="evenodd" d="m173.037 182.703c-.197-.053-.407.003-.552.148l-6.846 6.846c-.144.144-.2.354-.148.551l2.506 9.352c.053.197.207.351.404.404l9.352 2.506c.197.053.408-.003.552-.148l6.846-6.846c.144-.144.201-.355.148-.552l-2.506-9.352c-.053-.197-.207-.351-.404-.404zm8.258 8.356c-.899-3.353-4.345-5.343-7.699-4.444-3.353.898-5.343 4.345-4.444 7.698.898 3.353 4.345 5.343 7.698 4.445 3.353-.899 5.343-4.345 4.445-7.699z" fill-rule="evenodd"/><path d="m147.215 178.438c-.272.159-.622.068-.782-.205l-3.753-6.41c-.16-.273-.068-.623.204-.782l18.246-10.682c.272-.16.622-.068.782.204l3.753 6.411c.16.272.068.622-.204.782z"/><rect height="5.38939" rx=".571429" transform="matrix(-.50525076 -.86297258 .86297258 -.50525076 57.78854 406.136643)" width="20.1667" x="145.315" y="186.503"/></g><rect fill="#fdbbab" height="5.38939" rx=".571429" transform="matrix(-.50525076 -.86297258 .86297258 -.50525076 57.707307 397.086071)" width="9.73567" x="142.68" y="182.001"/></g></svg>

<svg width="240" height="240" viewBox="0 0 240 240" fill="none" xmlns="http://www.w3.org/2000/svg">
<g clip-path="url(#clip0_3388_13454)">
<path d="M93.5389 63.6898L93.9268 125.109C93.9534 129.309 90.5697 132.736 86.3691 132.763C81.8558 132.791 78.3107 128.906 78.7515 124.414L84.7507 63.2874C84.971 61.0428 86.8512 59.3272 89.1065 59.313C91.5391 59.2976 93.5236 61.2572 93.5389 63.6898Z" fill="#0D06C1"/>
<path d="M88.4881 82.759L93.543 109.894C94.4125 114.561 91.4757 119.092 86.8603 120.204C81.2727 121.55 75.888 117.341 75.8457 111.594L75.6665 87.2297C75.66 86.3485 75.5517 85.4711 75.3436 84.6148L68.2269 55.3318C67.5286 52.4585 69.2952 49.564 72.1699 48.8713C74.8769 48.219 77.6313 49.7535 78.5014 52.3985L88.4881 82.759Z" fill="#241ED3"/>
<path d="M81.5942 80.3315L92.6258 105.418C94.5452 109.782 92.7944 114.889 88.6009 117.159C83.4882 119.925 77.125 117.29 75.4657 111.718L68.2914 87.6293C68.0398 86.7846 67.6914 85.9719 67.2531 85.2073L48.5969 52.6651C47.0861 50.0297 48.0425 46.6672 50.7142 45.2215C53.1018 43.9295 56.0772 44.6086 57.668 46.8084L80.3934 78.2352C80.8666 78.8895 81.2692 79.5922 81.5942 80.3315Z" fill="#403ADD"/>
<path d="M68.4904 83.7327L88.0694 100.905C91.5999 104.002 93.7055 108.411 93.8945 113.103L94.8349 136.453C95.079 142.514 97.7775 148.215 102.31 152.246L106.782 156.224C113.815 162.478 115.638 172.741 111.19 181.036C104.983 192.609 89.5981 195.354 79.7713 186.642L61.1268 170.111L28.392 140.906C25.6036 138.418 24.2075 134.725 24.6534 131.014L26.6095 114.739C26.9099 112.241 29.089 110.398 31.603 110.517C33.8634 110.623 35.7423 112.294 36.1127 114.526L37.2998 121.679C37.845 124.965 39.7961 127.849 42.6427 129.577L48.4443 133.1C52.2818 135.43 57.1368 135.257 60.799 132.66C67.4343 127.955 69.7723 119.188 66.3613 111.804L62.5993 103.659C60.7557 99.6683 55.8683 98.1425 52.0815 100.376L36.3005 109.684C34.282 110.875 31.6879 110.32 30.3324 108.409C28.9717 106.49 29.3151 103.847 31.1211 102.34L53.6312 83.5508C57.953 79.9435 64.2582 80.0206 68.4904 83.7327Z" fill="#5B57CA"/>
<path fill-rule="evenodd" clip-rule="evenodd" d="M159.305 135.486L104.04 135.486C103.724 135.486 103.468 135.23 103.468 134.915L103.468 79.6494C103.468 79.6494 103.468 79.6494 103.468 79.6493C103.468 79.6493 103.468 79.6493 103.468 79.6493C103.468 48.8114 128.467 23.8124 159.305 23.8124C190.143 23.8124 215.142 48.8114 215.142 79.6493C215.142 110.487 190.143 135.486 159.305 135.486C159.305 135.486 159.305 135.486 159.305 135.486Z" fill="#F55C5C"/>
<path fill-rule="evenodd" clip-rule="evenodd" d="M194.389 96.9615C194.727 95.6878 193.561 94.525 192.288 94.866L184.222 97.0272C183.655 97.1791 183.039 97.0396 182.66 96.591C181.237 94.9037 180.637 92.6658 181.026 90.4931C181.13 89.9153 181.594 89.4861 182.161 89.3342L190.133 87.1982C191.405 86.8572 191.833 85.2673 190.904 84.3332L187.871 81.2848C187.438 80.8496 186.805 80.6793 186.212 80.8382L175.68 83.6601C175.087 83.819 174.624 84.2829 174.467 84.8764L173.685 87.8227C173.16 89.8008 171.618 91.3472 169.641 91.8769L121.832 104.687C119.245 105.38 117.709 108.04 118.403 110.628C119.096 113.215 121.756 114.751 124.343 114.057L172.15 101.248C174.127 100.718 176.236 101.286 177.68 102.736L179.832 104.899C180.265 105.334 180.898 105.505 181.491 105.346L192.022 102.524C192.615 102.365 193.078 101.901 193.236 101.307L194.389 96.9615Z" fill="#FFF500"/>
<rect width="5.54335" height="55.1563" rx="2.77167" transform="matrix(-0.258819 -0.965926 -0.965926 0.258819 174.359 98.3613)" fill="#F3E900"/>
<path d="M193.143 215.241L193.143 215.527L193.429 215.527L193.429 215.241L193.143 215.241ZM124.857 180.955C124.857 162.178 140.079 146.955 158.857 146.955L158.857 146.384C139.764 146.384 124.286 161.862 124.286 180.955L124.857 180.955ZM158.857 214.955C140.079 214.955 124.857 199.733 124.857 180.955L124.286 180.955C124.286 200.049 139.764 215.527 158.857 215.527L158.857 214.955ZM193.143 214.955L158.857 214.955L158.857 215.527L193.143 215.527L193.143 214.955ZM192.857 180.955L192.857 215.241L193.429 215.241L193.429 180.955L192.857 180.955ZM158.857 146.955C177.635 146.955 192.857 162.178 192.857 180.955L193.429 180.955C193.429 161.862 177.95 146.384 158.857 146.384L158.857 146.955Z" fill="#FDBBAB"/>
<path d="M200.414 64.1098C200.414 60.2808 197.31 57.1768 193.481 57.1768L161.395 57.1768L161.395 71.0428L193.481 71.0428C197.31 71.0428 200.414 67.9388 200.414 64.1098Z" fill="#FFF500"/>
<rect width="1.61233" height="30.3118" rx="0.806165" transform="matrix(-3.85215e-08 1 1 3.85215e-08 164.297 60.0781)" fill="#F3EA00"/>
<rect width="1.61233" height="30.3118" rx="0.806165" transform="matrix(-3.85215e-08 1 1 3.85215e-08 164.297 66.5283)" fill="#F3EA00"/>
<rect width="1.61233" height="30.3118" rx="0.806165" transform="matrix(-3.85215e-08 1 1 3.85215e-08 164.297 63.3027)" fill="#F3EA00"/>
<path d="M123.361 61.474C123.014 61.4185 122.699 61.6867 122.699 62.0383L122.699 66.5024C122.699 66.854 123.014 67.1222 123.361 67.0667L130.716 65.8899C130.746 65.8851 130.776 65.8827 130.807 65.8827L159.461 65.8827C160.351 65.8827 161.073 65.1608 161.073 64.2704C161.073 63.3799 160.351 62.658 159.461 62.658L130.807 62.658C130.776 62.658 130.746 62.6556 130.716 62.6509L123.361 61.474Z" fill="#E6E6E6"/>
<path d="M123.361 61.474C123.014 61.4185 122.699 61.6867 122.699 62.0383L122.699 66.5024C122.699 66.854 123.014 67.1222 123.361 67.0667L130.28 65.9597C130.557 65.9153 130.761 65.6762 130.761 65.3954L130.761 63.1453C130.761 62.8646 130.557 62.6254 130.28 62.581L123.361 61.474Z" fill="white"/>
<rect width="17.7356" height="2.90219" rx="1.4511" transform="matrix(-3.85215e-08 1 1 3.85215e-08 159.461 55.2412)" fill="#F3EA00"/>
<path fill-rule="evenodd" clip-rule="evenodd" d="M173.037 182.703C172.84 182.65 172.63 182.706 172.485 182.851L165.639 189.697C165.495 189.841 165.439 190.051 165.491 190.248L167.997 199.6C168.05 199.797 168.204 199.951 168.401 200.004L177.753 202.51C177.95 202.563 178.161 202.507 178.305 202.362L185.151 195.516C185.295 195.372 185.352 195.161 185.299 194.964L182.793 185.612C182.74 185.415 182.586 185.261 182.389 185.208L173.037 182.703ZM181.295 191.059C180.396 187.706 176.95 185.716 173.596 186.615C170.243 187.513 168.253 190.96 169.152 194.313C170.05 197.666 173.497 199.656 176.85 198.758C180.203 197.859 182.193 194.413 181.295 191.059Z" fill="#F55C5C"/>
<path d="M147.215 178.438C146.943 178.597 146.593 178.506 146.433 178.233L142.68 171.823C142.52 171.55 142.612 171.2 142.884 171.041L161.13 160.359C161.402 160.199 161.752 160.291 161.912 160.563L165.665 166.974C165.825 167.246 165.733 167.596 165.461 167.756L147.215 178.438Z" fill="#F55C5C"/>
<rect x="145.315" y="186.503" width="20.1667" height="5.38939" rx="0.571429" transform="rotate(-120.348 145.315 186.503)" fill="#F55C5C"/>
<rect x="142.68" y="182.001" width="9.73567" height="5.38939" rx="0.571429" transform="rotate(-120.348 142.68 182.001)" fill="#FDBBAB"/>
</g>
<defs>
<clipPath id="clip0_3388_13454">
<rect width="240" height="240" fill="white"/>
</clipPath>
</defs>
</svg>
